img/prop-icon4.svg

<svg width="30" height="30" viewBox="0 0 30 30" fill="none" xmlns="http://www.w3.org/2000/svg">
<path fill-rule="evenodd" clip-rule="evenodd" d="M9.69361 7.33423C10.3072 7.33358 10.9157 7.44613 11.4885 7.66624L10.8579 9.30707C10.4868 9.16447 10.0927 9.09157 9.69514 9.09204L9.69462 9.09204H4.99828C3.20861 9.09204 1.75781 10.5428 1.75781 12.3325V14.26H3.59877V20.6871H10.3737V22.4449H1.84096V16.0178H0V12.3325C0 9.57203 2.2378 7.33423 4.99828 7.33423H9.69361Z" fill="#E0E3E4"/>
<path fill-rule="evenodd" clip-rule="evenodd" d="M6.16187 8.21313V9.69562C6.16187 10.3497 6.69208 10.8799 7.3461 10.8799H7.34676L7.34742 10.8799C7.62428 10.8803 7.8924 10.783 8.10458 10.6052L9.23372 11.9524C8.70452 12.3959 8.03583 12.6386 7.34535 12.6377M8.53034 9.69562V8.21313H10.2882V9.69562H8.53034Z" fill="#E0E3E4"/>
<path fill-rule="evenodd" clip-rule="evenodd" d="M17.3474 7.33423C17.961 7.33358 18.5695 7.44613 19.1423 7.66624L18.5117 9.30707C18.1407 9.16447 17.7465 9.09157 17.3489 9.09204L17.3484 9.09204H12.6521C10.8624 9.09204 9.41162 10.5428 9.41162 12.3325V16.0179H11.2526V24.2031H18.7475V21.566H20.5053V25.9609H9.49477V17.7758H7.65381V12.3325C7.65381 9.57203 9.89161 7.33423 12.6521 7.33423H17.3474Z" fill="#E0E3E4"/>
<path fill-rule="evenodd" clip-rule="evenodd" d="M13.8157 8.21313V9.69562C13.8157 10.3497 14.3459 10.8799 14.9999 10.8799H15.0006L15.0012 10.8799C15.278 10.8803 15.5461 10.783 15.7582 10.6053L16.8872 11.9526C16.3581 12.396 15.6895 12.6386 14.9992 12.6377M16.1842 9.69562V8.21313H17.942V9.69562H16.1842Z" fill="#E0E3E4"/>
<path fill-rule="evenodd" clip-rule="evenodd" d="M15.3076 12.3325C15.3076 9.57203 17.5454 7.33423 20.3059 7.33423H25.0017C27.7622 7.33423 30 9.57203 30 12.3325V14.7701L28.1591 15.6838V22.4449H17.1486V15.6838L15.3076 14.7701V12.3325ZM20.3059 9.09204C18.5162 9.09204 17.0654 10.5428 17.0654 12.3325V13.6802L18.9064 14.5939V20.6871H26.4013V14.5939L28.2422 13.6802V12.3325C28.2422 10.5428 26.7914 9.09204 25.0017 9.09204H20.3059Z" fill="#E0E3E4"/>
<path fill-rule="evenodd" clip-rule="evenodd" d="M6.46729 5.79663H0V4.03882H30V5.79663H23.5327V7.9745H21.7749V5.79663H15.8789V7.9745H14.1211V5.79663H8.2251V7.9745H6.46729V5.79663ZM21.4696 8.21321V9.69569C21.4696 10.3497 21.9998 10.8799 22.6538 10.8799C23.3079 10.8799 23.838 10.3497 23.838 9.69569V8.21321H25.5959V9.69569C25.5959 11.3205 24.2787 12.6377 22.6538 12.6377C21.029 12.6377 19.7118 11.3206 19.7118 9.69569V8.21321H21.4696Z" fill="#E0E3E4"/>
</svg>

<svg width="30" height="30" fill="none" xmlns="http://www.w3.org/2000/svg"><path fill-rule="evenodd" clip-rule="evenodd" d="M9.694 7.334a4.99 4.99 0 011.794.332l-.63 1.641a3.23 3.23 0 00-1.163-.215H4.998a3.24 3.24 0 00-3.24 3.24v1.928h1.84v6.427h6.776v1.758H1.84v-6.427H0v-3.686a4.998 4.998 0 014.998-4.998h4.696z" fill="#E0E3E4"/><path fill-rule="evenodd" clip-rule="evenodd" d="M6.162 8.213v1.483c0 .654.53 1.184 1.184 1.184h.001c.277 0 .545-.097.758-.275l1.129 1.347a2.934 2.934 0 01-1.889.686M8.53 9.696V8.213h1.758v1.483H8.53z" fill="#E0E3E4"/><path fill-rule="evenodd" clip-rule="evenodd" d="M17.347 7.334a4.99 4.99 0 011.795.332l-.63 1.641a3.23 3.23 0 00-1.163-.215h-4.697a3.24 3.24 0 00-3.24 3.24v3.686h1.84v8.185h7.495v-2.637h1.758v4.395H9.495v-8.185H7.654v-5.444a4.998 4.998 0 014.998-4.998h4.695z" fill="#E0E3E4"/><path fill-rule="evenodd" clip-rule="evenodd" d="M13.816 8.213v1.483c0 .654.53 1.184 1.184 1.184h.001c.277 0 .545-.097.757-.275l1.13 1.348a2.934 2.934 0 01-1.889.685m1.185-2.942V8.213h1.758v1.483h-1.758z" fill="#E0E3E4"/><path fill-rule="evenodd" clip-rule="evenodd" d="M15.308 12.332a4.998 4.998 0 014.998-4.998h4.696A4.998 4.998 0 0130 12.332v2.438l-1.84.914v6.76H17.148v-6.76l-1.841-.914v-2.438zm4.998-3.24a3.24 3.24 0 00-3.24 3.24v1.348l1.84.914v6.093h7.495v-6.093l1.841-.914v-1.348a3.24 3.24 0 00-3.24-3.24h-4.696z" fill="#E0E3E4"/><path fill-rule="evenodd" clip-rule="evenodd" d="M6.467 5.797H0V4.039h30v1.758h-6.467v2.178h-1.758V5.796h-5.896v2.178H14.12V5.796H8.225v2.178H6.467V5.796zM21.47 8.213v1.483a1.184 1.184 0 002.368 0V8.213h1.758v1.483a2.942 2.942 0 01-5.884 0V8.213h1.758z" fill="#E0E3E4"/></svg>
